X:100
T: Ross Hornpipe
C: Noel Strange
S: Treoir 32/4
Z: B.Black
M: 4/4
L: 1/8
R: hornpipe
K: D
AF|(3DED A,E DFAd|fdBc dBAF|(3DED A,E DFAF|GBFA E2 AF|
(3DED A,E DFAd|fdBc dBAG|FdBG FAGE|(3DED CE D2 :|
Bc|d2 ce dAFD|d2 fa gfed|c2 Ac B2 GB|BAFD A,GFE|
(3DED A,E DFAd|fdBc dfAG|FdBG FAGE|(3DED CE D2 :|
